X:1
T:Title
%%score { ( 1 4 ) | ( 2 3 ) }
L:1/8
M:4/4
K:Bb
V:1 treble nm="Grand Piano"
V:4 treble 
V:2 bass 
V:3 bass 
V:1
 z4 z2[Q:1/4=106] [DB]2 | [DA]2 [DG]2 [DG]2 [DA]2 | [EG]3 [EF] [EF]2 FG | A2 GF A2 GF | %4
 G4 z2 [DB]2 | [DA]2 [DG]2 [B,DG]2 [DFA]2 | [Fc]2 [Fd]2 [Fc]2 [DFB]2 | %7
 [C=EA]2 [B,EG]2 [A,_E^F]2 [B,=EG]2 | c4 F2 [DB]2 | [DA]2 [DG]2 [DG]2 [DA]2 | [EG]3 [EF] [EF]2 FG | %11
 A2 GF A2 GF | G4 z2 [B,DB]2 | [EB]2 [EB]2 [EB]2 [EB]2 | [Dd]2 .[EB]2 [B,DF]2 [B,DF]2 | %15
 [B,EG]2 [=B,FG]2 [C=EG]2 AB | c4 F2 z2 |[M:3/4] d2 f3 d | [=Ec]2 [EG]4 | cc d3 c | [DB]2 [DF]4 | %21
 [DF]2 [DG][DA] [DB][DG] | A>A c2 c2 | [Af]3 [Ge] c_d | d6 | d2 f3 d | [=Ec]2 [EG]4 | cc d3 c | %28
 [DB]2 [DF]4 | B2 fd cB | c>B B2 c2 | dB c3 [DB] | [DB]6 |] %33
V:2
 z4 z2 [B,,F,]2 | [B,,F,]2 [B,,F,]2 [B,,F,]2 [B,,F,]2 | z4 z2 .A,2 | %3
 [F,CE]2 [F,E]-[F,A,E] [F,CE]2 [F,E]-[F,A,E] | z4 F2 [B,,F,]2 | [B,,F,]2 [B,,F,]2 B,,2 =B,,2 | %6
 [C,A,]2 [C,A,]2 [C,A,]2 C,2 | C,2 C,2 C,2 C,2 | [F,A,E]6 [B,,F,]2 | %9
 [B,,F,]2 [B,,F,]2 [B,,F,]2 [B,,F,]2 | z4 z2 .A,2 | [F,CE]2 [F,E]-[F,A,E] [F,CE]2 [F,E]-[F,A,E] | %12
 z4 F2 B,,2 | [B,,G,]2 [B,,G,]2 [B,,^F,]2 [B,,F,]2 | [B,,F,]2 z G B,,2 B,,2 | E,2 D,2 C,2 C,2 | %16
 [F,A,E]6 z2 |[M:3/4][K:treble] [B,DF]2 [B,DF]3 [B,DF] | [C,B,]2 [C,B,]4 | %19
 [F,A,E][F,A,E] [F,A,F]3 [F,A,E] | [B,,B,]2 [B,,B,]4 | [B,,B,]2 [B,,B,][B,,B,] [B,,B,][B,,B,] | %22
 [F,CE]>[F,CE] [F,A,E]2 [F,A,E]2 | [F,C]3 [F,A,] [F,A,E][F,A,=E] | [B,DF]6 | %25
 [B,DF]2 [B,DF]3 [B,DF] | [C,B,]2 [C,B,]4 | [F,A,E][F,A,E] [F,A,F]3 [F,A,E] | [B,,B,]2 [B,,B,]4 | %29
 [_A,DF]2 [A,B,F][A,B,F] [A,DF][A,DF] | [G,B,E]>[G,B,E] [G,B,E]2 [^F,B,E]2 | %31
 [F,B,F][F,DF] [F,A,E]3 [B,,F,] | [B,,F,]6 |] %33
V:3
 x8 | x8 | [C,A,]3 [C,A,] [C,A,]2 [F,E]-[F,B,E] | z2 .B,2 z2 .B,2 | B,,6 z2 | x8 | x8 | x8 | x8 | %9
 x8 | [C,A,]3 [C,A,] [C,A,]2 [F,E]-[F,B,E] | z2 .B,2 z2 .B,2 | B,,6 z2 | x8 | z2 [B,,G,]2 z4 | x8 | %16
 x8 |[M:3/4][K:treble] x6 | x6 | x6 | x6 | x6 | x6 | x6 | x6 | x6 | x6 | x6 | x6 | x6 | x6 | x6 | %32
 x6 |] %33
V:4
 x8 | x8 | x8 | x8 | [B,D]6 z2 | x8 | x8 | x8 | x8 | x8 | x8 | x8 | [B,D]6 z2 | x8 | x8 | %15
 z4 z2 [_B,=E]2 | x8 |[M:3/4] x6 | x6 | x6 | x6 | x6 | x6 | x6 | x6 | x6 | x6 | x6 | x6 | x6 | x6 | %31
 x6 | x6 |] %33

